flaticon/interaction/calendar-1.svg

<svg xmlns="http://www.w3.org/2000/svg" width="32" height="32" viewBox="0 0 24 24">
    <path d="M 21.101562 13.234375 L 21.101562 0.621094 L 0 0.621094 L 0 19.65625 C 0 19.882812 0.183594 20.070312 0.414062 20.070312 L 13.65625 20.070312 C 14.46875 22.011719 16.386719 23.378906 18.621094 23.378906 C 21.585938 23.378906 24 20.964844 24 18 C 24 15.929688 22.824219 14.132812 21.101562 13.234375 Z M 14.484375 1.449219 L 20.277344 1.449219 L 20.277344 4.757812 L 14.484375 4.757812 Z M 7.863281 1.449219 L 13.65625 1.449219 L 13.65625 4.757812 L 7.863281 4.757812 Z M 0.828125 1.449219 L 7.035156 1.449219 L 7.035156 4.757812 L 0.828125 4.757812 Z M 13.390625 19.242188 L 0.828125 19.242188 L 0.828125 5.585938 L 20.277344 5.585938 L 20.277344 12.882812 C 20.195312 12.859375 20.113281 12.835938 20.03125 12.8125 C 19.953125 12.792969 19.875 12.773438 19.796875 12.753906 C 19.726562 12.738281 19.65625 12.726562 19.585938 12.710938 C 19.488281 12.695312 19.386719 12.679688 19.28125 12.664062 C 19.226562 12.660156 19.167969 12.652344 19.113281 12.644531 C 18.949219 12.628906 18.785156 12.621094 18.621094 12.621094 C 17.171875 12.621094 15.855469 13.199219 14.890625 14.132812 C 14.902344 14 14.921875 13.867188 14.921875 13.730469 L 14.921875 10.691406 C 14.921875 9.847656 14.625 9.128906 14.035156 8.542969 C 13.449219 7.953125 12.734375 7.660156 11.894531 7.660156 C 11.054688 7.660156 10.339844 7.953125 9.75 8.542969 C 9.160156 9.128906 8.867188 9.84375 8.867188 10.683594 C 8.867188 11.523438 9.160156 12.238281 9.75 12.828125 C 10.339844 13.417969 11.066406 13.710938 11.9375 13.710938 C 12.804688 13.710938 13.539062 13.390625 14.136719 12.742188 L 14.136719 13.632812 C 14.136719 14.523438 13.875 15.199219 13.351562 15.660156 C 12.832031 16.121094 12.214844 16.351562 11.5 16.351562 L 11.195312 16.351562 L 11.195312 17.132812 L 11.445312 17.132812 C 12.082031 17.132812 12.636719 17.023438 13.109375 16.800781 C 13.222656 16.746094 13.324219 16.691406 13.421875 16.632812 C 13.308594 17.070312 13.242188 17.527344 13.242188 18 C 13.242188 18.203125 13.253906 18.402344 13.277344 18.601562 C 13.28125 18.632812 13.289062 18.664062 13.292969 18.695312 C 13.316406 18.871094 13.34375 19.046875 13.386719 19.21875 C 13.386719 19.226562 13.386719 19.234375 13.390625 19.242188 Z M 14.136719 10.671875 C 14.136719 11.3125 13.921875 11.847656 13.488281 12.28125 C 13.058594 12.710938 12.527344 12.925781 11.902344 12.925781 C 11.273438 12.925781 10.742188 12.710938 10.308594 12.28125 C 9.871094 11.847656 9.652344 11.320312 9.652344 10.691406 C 9.652344 10.066406 9.871094 9.535156 10.308594 9.097656 C 10.742188 8.660156 11.273438 8.441406 11.894531 8.441406 C 12.515625 8.441406 13.046875 8.652344 13.480469 9.074219 C 13.917969 9.5 14.136719 10.03125 14.136719 10.671875 Z M 18.621094 22.550781 C 16.640625 22.550781 14.953125 21.277344 14.332031 19.507812 C 14.292969 19.398438 14.257812 19.285156 14.226562 19.171875 C 14.222656 19.148438 14.214844 19.125 14.210938 19.101562 C 14.183594 19.003906 14.164062 18.90625 14.144531 18.804688 C 14.132812 18.75 14.128906 18.695312 14.121094 18.640625 C 14.109375 18.566406 14.097656 18.492188 14.089844 18.414062 C 14.078125 18.277344 14.070312 18.140625 14.070312 18 C 14.070312 15.492188 16.109375 13.449219 18.621094 13.449219 C 18.78125 13.449219 18.941406 13.457031 19.101562 13.472656 C 19.125 13.476562 19.152344 13.484375 19.175781 13.484375 C 19.3125 13.503906 19.445312 13.523438 19.578125 13.550781 C 19.597656 13.554688 19.613281 13.5625 19.628906 13.566406 C 19.769531 13.597656 19.910156 13.636719 20.050781 13.683594 C 20.0625 13.683594 20.070312 13.6875 20.082031 13.691406 C 20.222656 13.742188 20.363281 13.796875 20.5 13.859375 C 22.074219 14.578125 23.171875 16.160156 23.171875 18 C 23.171875 20.507812 21.128906 22.550781 18.621094 22.550781 Z M 18.621094 22.550781"/>
    <path d="M21.101562 17.585938L16.136719 17.585938C15.910156 17.585938 15.722656 17.769531 15.722656 18 15.722656 18.230469 15.910156 18.414062 16.136719 18.414062L21.101562 18.414062C21.332031 18.414062 21.515625 18.230469 21.515625 18 21.515625 17.769531 21.332031 17.585938 21.101562 17.585938zM4.550781 8.898438L4.550781 9.722656 6.644531 8.484375 6.644531 17.203125 7.472656 17.203125 7.472656 7.65625 6.644531 7.65625zM4.550781 8.898438"/>
</svg>

<svg xmlns="http://www.w3.org/2000/svg" width="32" height="32" viewBox="0 0 24 24">
    <path d="M21.102 13.234V.621H0v19.035c0 .227.184.414.414.414h13.242a5.386 5.386 0 0 0 4.965 3.309A5.386 5.386 0 0 0 24 18a5.373 5.373 0 0 0-2.898-4.766zM14.484 1.45h5.793v3.309h-5.793zm-6.62 0h5.792v3.309H7.863zm-7.036 0h6.207v3.309H.828zm12.563 17.793H.828V5.586h19.45v7.297l-.247-.07-.234-.06c-.07-.015-.14-.026-.211-.042l-.305-.047a2.457 2.457 0 0 1-.168-.02 5.352 5.352 0 0 0-4.223 1.488c.012-.132.032-.265.032-.402v-3.039c0-.843-.297-1.562-.887-2.148-.586-.59-1.3-.883-2.14-.883-.84 0-1.555.293-2.145.883-.59.586-.883 1.3-.883 2.14 0 .84.293 1.555.883 2.145.59.59 1.316.883 2.188.883.867 0 1.601-.32 2.199-.969v.89c0 .891-.262 1.567-.785 2.028-.52.461-1.137.692-1.852.692h-.305v.78h.25c.637 0 1.192-.109 1.664-.331a3.87 3.87 0 0 0 .313-.168c-.113.437-.18.894-.18 1.367 0 .203.012.402.035.602.004.03.012.062.016.093a4.737 4.737 0 0 0 .098.547zm.746-8.57c0 .64-.215 1.176-.649 1.61-.43.429-.96.644-1.586.644-.629 0-1.16-.215-1.593-.645a2.149 2.149 0 0 1-.657-1.59c0-.625.22-1.156.657-1.593a2.152 2.152 0 0 1 1.586-.657c.62 0 1.152.211 1.585.633.438.426.657.957.657 1.598zM18.62 22.55a4.552 4.552 0 0 1-4.394-3.38c-.004-.023-.012-.046-.016-.07a3.64 3.64 0 0 1-.066-.296c-.012-.055-.016-.11-.024-.164-.012-.075-.023-.149-.031-.227a4.555 4.555 0 0 1 5.012-4.941c.023.004.05.011.074.011.137.02.27.04.402.067.02.004.035.011.05.015.142.032.282.07.423.118.012 0 .02.004.031.007A4.554 4.554 0 0 1 23.172 18a4.558 4.558 0 0 1-4.55 4.55zm0 0"/>
    <path d="M21.102 17.586h-4.965a.414.414 0 0 0 0 .828h4.965c.23 0 .414-.184.414-.414a.412.412 0 0 0-.414-.414zm0 0M4.55 8.898v.825l2.095-1.239v8.72h.828V7.655h-.828zm0 0"/>
</svg>
